icons/src/beach.umbrella.svg

<!--Generator: Apple Native CoreSVG 341-->
<!DOCTYPE svg  PUBLIC '-//W3C//DTD SVG 1.1//EN'  'http://www.w3.org/Graphics/SVG/1.1/DTD/svg11.dtd'>
<svg version="1.1" viewBox="0 0 20.073 23.146" xmlns="http://www.w3.org/2000/svg">
 <rect width="20.073" height="23.146" opacity="0"/>
 <path d="m0.065728 7.9159c-0.19531 0.55664 0.068359 1.0156 0.47852 1.1621 0.3125 0.11718 0.61524-0.0293 0.86914-0.23438 0.88868-0.6543 1.7383-0.94726 2.7539-0.57617 1.0156 0.36133 1.4258 1.1133 1.6016 2.1582 0.04883 0.3418 0.16602 0.6152 0.45899 0.7226 0.3125 0.1172 0.57617-0.0195 0.83984-0.2441 0.58594-0.498 1.377-0.752 2.1289-0.7129l-4.3262 11.856c-0.15625 0.4199 0.06835 0.8984 0.49804 1.0547 0.41016 0.1464 0.89844-0.0782 1.0547-0.4981l4.3164-11.856c0.5957 0.459 1.0253 1.1622 1.1523 1.9239 0.0684 0.3222 0.1758 0.6054 0.4785 0.7129 0.3027 0.1074 0.5664-0.0391 0.8301-0.2539 0.8105-0.6836 1.5918-0.9961 2.6074-0.6348 1.0156 0.3809 1.4844 1.1426 1.7383 2.2363 0.0781 0.3125 0.2051 0.6153 0.5176 0.7227 0.4101 0.1465 0.9277-0.0293 1.1133-0.586 1.3281-3.6425 0.4199-9.7168-5.459-12.314l0.5078-1.377c0.166-0.48828-0.0195-0.92774-0.4883-1.1035-0.4492-0.16602-0.8887 0.058594-1.0645 0.53711l-0.498 1.3867c-6.1719-1.7969-10.781 2.2559-12.109 5.918zm2.2852-1.1328c1.6602-2.5488 4.7852-4.1602 8.2812-3.5644-1.5722 1.0352-3.0859 2.8516-4.0722 5.1953-0.39063-0.75195-1.0254-1.2695-1.8652-1.5625-0.79101-0.2832-1.5625-0.3125-2.3438-0.06836zm5.3906 2.1192c1.1133-2.6465 2.9883-4.5508 4.6875-5.2344 0.8789 1.6211 1.0938 4.2773 0.2441 7.041-0.4687-0.81056-1.2597-1.4649-2.1484-1.7969-0.88866-0.32226-1.914-0.32226-2.7832-0.00976zm6.1426 2.1778c0.7617-2.4317 0.7715-4.7852 0.2344-6.5918 3.0468 1.7969 4.4043 5.0391 4.0332 8.0469-0.4395-0.6836-1.0547-1.1622-1.8262-1.4551-0.8399-0.3028-1.6602-0.3223-2.4414 0z" fill="#fff"/>
</svg>

<?xml version="1.0" encoding="UTF-8"?>
<!--Generator: Apple Native CoreSVG 341-->
<!DOCTYPE svg
PUBLIC "-//W3C//DTD SVG 1.1//EN"
       "http://www.w3.org/Graphics/SVG/1.1/DTD/svg11.dtd">
<svg version="1.1" xmlns="http://www.w3.org/2000/svg" xmlns:xlink="http://www.w3.org/1999/xlink" viewBox="0 0 20.0729 23.1463">
 <g>
  <rect height="23.1463" opacity="0" width="20.0729" x="0" y="0"/>
  <path d="M0.065728 7.91592C-0.129585 8.47256 0.134087 8.93154 0.544244 9.07803C0.856744 9.19521 1.15948 9.04873 1.41338 8.84365C2.30206 8.18935 3.15167 7.89639 4.16729 8.26748C5.18292 8.62881 5.59307 9.38076 5.76885 10.4257C5.81768 10.7675 5.93487 11.0409 6.22784 11.1483C6.54034 11.2655 6.80401 11.1288 7.06768 10.9042C7.65362 10.4062 8.44463 10.1522 9.19659 10.1913L4.87042 22.0468C4.71417 22.4667 4.93877 22.9452 5.36846 23.1015C5.77862 23.2479 6.2669 23.0233 6.42315 22.6034L10.7396 10.7479C11.3353 11.2069 11.7649 11.9101 11.8919 12.6718C11.9603 12.994 12.0677 13.2772 12.3704 13.3847C12.6731 13.4921 12.9368 13.3456 13.2005 13.1308C14.011 12.4472 14.7923 12.1347 15.8079 12.496C16.8235 12.8769 17.2923 13.6386 17.5462 14.7323C17.6243 15.0448 17.7513 15.3476 18.0638 15.455C18.4739 15.6015 18.9915 15.4257 19.1771 14.869C20.5052 11.2265 19.597 5.15225 13.7181 2.55459L14.2259 1.17764C14.3919 0.689355 14.2064 0.249901 13.7376 0.0741201C13.2884-0.0918955 12.8489 0.132714 12.6731 0.61123L12.1751 1.99795C6.00323 0.201073 1.39385 4.25381 0.065728 7.91592ZM2.35088 6.7831C4.01104 4.23428 7.13604 2.62295 10.6321 3.21865C9.05987 4.25381 7.5462 6.07021 6.55987 8.41396C6.16924 7.66201 5.53448 7.14443 4.69463 6.85146C3.90362 6.56826 3.13213 6.53896 2.35088 6.7831ZM7.74151 8.90225C8.85479 6.25576 10.7298 4.35146 12.429 3.66787C13.3079 5.28896 13.5228 7.94521 12.6731 10.7089C12.2044 9.89834 11.4134 9.24404 10.5247 8.91201C9.63604 8.58975 8.61065 8.58975 7.74151 8.90225ZM13.8841 11.08C14.6458 8.64834 14.6556 6.29482 14.1185 4.48818C17.1653 6.28506 18.5228 9.52725 18.1517 12.5351C17.7122 11.8515 17.097 11.3729 16.3255 11.08C15.4856 10.7772 14.6653 10.7577 13.8841 11.08Z" fill="white"/>
 </g>
</svg>
